img/subtract.svg

<svg fill="none" height="18" viewBox="0 0 25 18" width="25" xmlns="http://www.w3.org/2000/svg"><path clip-rule="evenodd" d="m22.1039 1.16106c1.0338.27651 1.8403 1.08609 2.1199 2.11994.7312 2.94948.6836 8.5258.0154 11.5214-.2766 1.0339-1.0861 1.8404-2.12 2.1199-2.9187.7221-15.99169.633-18.74147 0-1.03385-.2765-1.84035-1.086-2.11994-2.1199-.689743-2.8112-.642121-8.75626-.01536-11.50604.27652-1.03385 1.08609-1.84035 2.11994-2.11994 3.90192-.814177 17.35273-.551489 18.74153-.01536zm-11.6752 4.28628 6.2677 3.59468-6.2677 3.59468z" fill="#000" fill-rule="evenodd"/></svg>

<svg width="25" height="18" viewBox="0 0 25 18" fill="none" xmlns="http://www.w3.org/2000/svg">
<path fill-rule="evenodd" clip-rule="evenodd" d="M22.1039 1.16106C23.1377 1.43757 23.9442 2.24715 24.2238 3.281C24.955 6.23048 24.9074 11.8068 24.2392 14.8024C23.9626 15.8363 23.1531 16.6428 22.1192 16.9223C19.2005 17.6444 6.12751 17.5553 3.37773 16.9223C2.34388 16.6458 1.53738 15.8363 1.25779 14.8024C0.568047 11.9912 0.615669 6.04614 1.24243 3.29636C1.51895 2.26251 2.32852 1.45601 3.36237 1.17642C7.26429 0.362243 20.7151 0.624931 22.1039 1.16106ZM10.4287 5.44734L16.6964 9.04202L10.4287 12.6367V5.44734Z" fill="black"/>
</svg>
